public/images/facebook.svg

<?xml version="1.0" encoding="UTF-8"?>
<svg width="14px" height="29px" viewBox="0 0 14 29" version="1.1" xmlns="http://www.w3.org/2000/svg" xmlns:xlink="http://www.w3.org/1999/xlink">
    <!-- Generator: Sketch 48.2 (47327) - http://www.bohemiancoding.com/sketch -->
    <title>Group</title>
    <desc>Created with Sketch.</desc>
    <defs></defs>
    <g id="Page-1" stroke="none" stroke-width="1" fill="none" fill-rule="evenodd">
        <g id="Group-6" transform="translate(-407.000000, 0.000000)" fill="#000000" fill-rule="nonzero">
            <g id="Group" transform="translate(407.000000, 0.000000)">
                <g id="facebook-letter-logo-copy">
                    <path d="M3.05511881,5.51949733 C3.05511881,6.23769459 3.05511881,9.44330998 3.05511881,9.44330998 L0.0482376238,9.44330998 L0.0482376238,14.2413633 L3.05511881,14.2413633 L3.05511881,28.4994905 L9.23189109,28.4994905 L9.23189109,14.2417609 L13.3767921,14.2417609 C13.3767921,14.2417609 13.7649802,11.941131 13.9531485,9.42561843 C13.4136634,9.42561843 9.25524752,9.42561843 9.25524752,9.42561843 C9.25524752,9.42561843 9.25524752,6.63426352 9.25524752,6.14499619 C9.25524752,5.6546687 9.92870297,4.99511196 10.5943267,4.99511196 C11.258703,4.99511196 12.6609208,4.99511196 13.9596634,4.99511196 C13.9596634,4.34184996 13.9596634,2.08468698 13.9596634,6.62604718e-05 C12.2258812,6.62604718e-05 10.2534059,6.62604718e-05 9.3839505,6.62604718e-05 C2.90243564,-0.000265041889 3.05511881,4.80255903 3.05511881,5.51949733 Z" id="Facebook"></path>
                </g>
            </g>
        </g>
    </g>
</svg>

<svg width="14" height="29" xmlns="http://www.w3.org/2000/svg"><path d="M3.055 5.52v3.923H.048v4.798h3.007V28.5h6.177V14.242h4.145s.388-2.3.576-4.816H9.255V6.145c0-.49.674-1.15 1.34-1.15h3.365V0H9.384C2.902 0 3.055 4.803 3.055 5.52z"/></svg>
